X:1
T:Mule on the Mount
M:4/4
L:1/8
K:F
 DD FF A4| A A2 A F2A/2-G/2 A|F-D F2- F4| DD FF A4| d c2 c A2 A2| F2 F2 z2 DF|\
 F4A/2-F/2 A- A2| F2D-F F4-| F6 z2|
